packages/core/src/svgs/avl.svg

<svg width="24" height="24" viewBox="0 0 24 24" fill="none" xmlns="http://www.w3.org/2000/svg">
<g clip-path="url(#clip0_31_6473)">
<path d="M0 0H24V24H0V0Z" fill="#7A123C"/>
<path fill-rule="evenodd" clip-rule="evenodd" d="M12.0001 18.8572C15.7715 18.8572 18.8572 15.7715 18.8572 12.0001C18.8572 8.22864 15.7715 5.14293 12.0001 5.14293C8.22864 5.14293 5.14293 8.22864 5.14293 12.0001C5.14293 15.7715 8.22864 18.8572 12.0001 18.8572ZM12.0001 19.2858C13.9324 19.2858 15.7855 18.5182 17.1518 17.1518C18.5182 15.7855 19.2858 13.9324 19.2858 12.0001C19.2858 10.0678 18.5182 8.21463 17.1518 6.84829C15.7855 5.48196 13.9324 4.71436 12.0001 4.71436C10.0678 4.71436 8.21463 5.48196 6.84829 6.84829C5.48196 8.21463 4.71436 10.0678 4.71436 12.0001C4.71436 13.9324 5.48196 15.7855 6.84829 17.1518C8.21463 18.5182 10.0678 19.2858 12.0001 19.2858Z" fill="#A2C3E6"/>
<path d="M15.8574 7.28564H8.14307V15.0642C8.14307 15.6728 8.53735 16.1485 9.32164 16.4999C9.58307 16.6199 9.93021 16.7399 10.3674 16.8642L11.3402 17.1428L11.4774 17.2028C11.6765 17.2814 11.8532 17.408 11.9916 17.5714C12.1667 17.38 12.3881 17.2368 12.6345 17.1556C12.7502 17.1128 13.0716 17.0142 13.5945 16.8642C14.0488 16.7356 14.4002 16.6156 14.6531 16.5042C15.4545 16.1571 15.8574 15.6771 15.8574 15.0642V7.28564Z" fill="white"/>
<path d="M11.7299 16.9286C11.8156 16.9844 11.9013 17.0572 11.9913 17.1429L12.1884 16.9758C12.2784 16.9072 12.4027 16.8472 12.557 16.7958C12.6641 16.7529 12.9513 16.6758 13.4141 16.5515C13.817 16.4401 14.1341 16.3372 14.357 16.2472C15.0727 15.9515 15.4284 15.5444 15.4284 15.0301V7.71436H8.57129V15.0301C8.57129 15.5444 8.92272 15.9472 9.617 16.2429C9.85272 16.3415 10.1613 16.4444 10.5513 16.5472L11.417 16.7829L11.7299 16.9286Z" fill="#A3C4E9"/>
<path d="M10.2857 9.91728L9.84429 9.84871L9.64286 9.42871L9.44571 9.84871L9 9.91728L9.32143 10.2473L9.24429 10.7144L9.64286 10.4916L10.0414 10.7144L9.96429 10.243L10.2857 9.91728Z" fill="white"/>
<path d="M10.7141 11.2287C10.7098 11.2973 10.7184 11.3444 10.757 11.383C10.7012 11.4173 10.7141 11.473 10.7355 11.5244C10.7859 11.6075 10.863 11.6709 10.9541 11.7044C10.9755 11.6744 10.9241 11.6016 10.9412 11.5502C11.0055 11.593 11.0698 11.6273 11.1127 11.623C11.0827 11.5716 11.0784 11.5373 11.0912 11.5244C11.207 11.4387 11.3441 11.3316 11.4255 11.3102C11.4898 11.2887 11.5584 11.3316 11.5712 11.4044C11.5841 11.4902 11.5455 11.5587 11.4855 11.6187C11.3741 11.7216 11.2241 11.773 11.1084 11.8887C10.9241 12.0687 10.8855 12.2659 10.6627 12.2744C10.787 12.2059 10.8555 12.1416 10.9241 12.0216C10.487 12.0816 10.217 11.8716 9.94695 11.7473C9.82695 11.6959 9.70695 11.683 9.64267 11.6702C9.54453 11.5935 9.47753 11.4839 9.4541 11.3616C9.4241 11.2116 9.46695 11.0787 9.31267 11.0616C9.22695 10.9544 9.11124 10.8816 8.9441 10.9759C9.02981 10.9887 9.09838 11.0102 9.14124 11.1259C9.12838 11.143 9.09838 11.1687 9.09838 11.1944C9.04267 11.1987 9.02552 11.203 8.98695 11.2373C8.84124 11.1816 8.69981 11.203 8.63124 11.3316C8.7341 11.3102 8.81124 11.3102 8.8841 11.3744C8.89267 11.4173 8.89695 11.443 8.92267 11.4773C8.8966 11.4919 8.87418 11.5122 8.8571 11.5367C8.84003 11.5612 8.82874 11.5892 8.8241 11.6187C8.7041 11.6444 8.63124 11.7044 8.62695 11.8073C8.71267 11.7559 8.79838 11.7473 8.84124 11.7602C8.87124 11.7859 8.89267 11.833 8.95267 11.8459C9.01695 11.863 9.14124 11.8416 9.2141 11.8587C9.2441 11.9016 9.25267 11.9273 9.24838 11.953C9.23981 12.0644 9.0341 11.9916 9.05552 12.1587C8.98267 12.1759 8.93981 12.1544 8.8841 12.1159C8.92267 12.2787 9.02981 12.3516 9.17552 12.2744C9.29552 12.3002 9.37267 12.1887 9.47981 12.133C9.58695 12.0816 9.74124 12.1502 9.82695 12.2016C9.9641 12.2873 10.1055 12.3944 10.1784 12.643C10.2255 12.6002 10.2598 12.5359 10.2641 12.4716L10.6155 12.7587L9.86553 13.273C9.8141 13.3073 9.75838 13.3416 9.70267 13.3202C9.65981 13.3073 9.62981 13.2602 9.59124 13.2259C9.53124 13.1787 9.4541 13.1444 9.36838 13.183C9.23553 13.183 9.11124 13.2087 9.08553 13.3887C9.12838 13.3544 9.17124 13.3202 9.25267 13.3459C9.25267 13.3887 9.26553 13.4273 9.29553 13.4616C9.25267 13.483 9.22695 13.5173 9.22695 13.543C9.09838 13.5473 9.01267 13.6073 8.99981 13.7402C9.06838 13.6759 9.12838 13.6502 9.2141 13.6802C9.23552 13.8087 9.3041 13.8302 9.38552 13.8173C9.3641 13.8773 9.35552 13.9159 9.38552 13.963C9.34267 14.0487 9.38981 14.1559 9.44981 14.1944C9.44552 14.143 9.44981 14.0787 9.48838 14.053C9.55695 14.0659 9.60838 14.0402 9.68124 13.9587C9.68745 13.9897 9.70487 14.0174 9.73017 14.0363C9.75547 14.0553 9.78687 14.0643 9.81838 14.0616C9.82695 14.1344 9.86124 14.1902 9.91267 14.2287C9.89647 14.1686 9.89354 14.1058 9.9041 14.0444C10.0327 13.9587 10.007 13.8602 10.0284 13.7487C10.0498 13.6244 10.1227 13.5687 10.2341 13.5044C10.4484 13.3759 10.7098 13.2816 11.117 13.2516C11.2455 13.3887 11.3741 13.5344 11.5327 13.6587C11.2884 13.8344 11.1212 13.7616 10.9198 13.783C10.8298 13.7916 10.7098 13.8259 10.6455 13.8902C10.5898 13.9416 10.5598 14.0059 10.4955 14.0359C10.4484 14.0573 10.3841 14.0616 10.307 14.0059C10.3027 14.1644 10.3755 14.2202 10.5598 14.2073C10.4955 14.2759 10.427 14.3016 10.2855 14.2587C10.3455 14.383 10.4398 14.4302 10.5898 14.4173C10.6284 14.6316 10.9412 14.7516 10.8855 14.923C10.8084 15.1544 10.2298 15.2187 10.0198 15.0987C9.86981 15.013 9.80552 14.8759 9.6341 14.9187C9.53552 14.8416 9.35981 14.8159 9.28695 15.0044C9.41552 14.9402 9.47124 14.9744 9.44124 15.0473C9.2141 15.0473 9.12838 15.1502 9.16267 15.2873C9.20552 15.2144 9.24838 15.2016 9.30838 15.2059C9.28362 15.2594 9.27327 15.3185 9.27838 15.3773C9.16695 15.433 9.16267 15.5444 9.2141 15.6344C9.2441 15.5616 9.25695 15.493 9.32981 15.4887C9.37267 15.5359 9.42838 15.5744 9.50124 15.5959C9.47552 15.7116 9.4841 15.8187 9.52267 15.9087C9.54838 15.8273 9.5741 15.7802 9.60838 15.7416C9.7241 15.8144 9.84838 15.8144 9.96838 15.7844C10.2127 15.7287 10.367 15.5573 10.5555 15.5573C10.6627 15.5573 10.7141 15.6302 10.6412 15.7159C10.7955 15.7073 10.877 15.673 10.9498 15.6387C11.0655 15.5787 11.1384 15.5059 11.2498 15.4802C11.4384 15.4373 11.6998 15.6302 11.8284 15.4202C11.6784 15.4416 11.5927 15.3816 11.5712 15.3216C11.7555 15.3473 11.8712 15.343 11.9741 15.2059C11.9287 15.2151 11.8819 15.2151 11.8365 15.2057C11.7911 15.1964 11.7481 15.1779 11.7101 15.1515C11.672 15.125 11.6397 15.0912 11.6151 15.0519C11.5905 15.0126 11.5741 14.9688 11.567 14.923C11.5498 14.8159 11.5884 14.6144 11.8412 14.5502C11.927 14.4002 11.9698 14.323 12.0555 14.1987L12.0855 14.0787C12.1027 14.1344 12.1155 14.1859 12.0984 14.2502C12.0684 14.3359 11.9998 14.4302 11.957 14.533C11.9227 14.6187 11.9141 14.7044 11.9141 14.7773C11.9227 14.863 11.957 14.9444 12.017 15.0087C12.1241 15.1202 12.2741 15.2059 12.167 15.4244C12.2827 15.4159 12.347 15.3687 12.4584 15.253C12.5441 15.3087 12.6127 15.3902 12.5784 15.493C12.7241 15.4544 12.8141 15.3559 12.8655 15.2102C13.0712 15.2187 13.1827 15.253 13.2084 15.3216C13.2384 15.4373 12.9084 15.8702 12.497 15.8873C12.4284 15.8702 12.377 15.8102 12.3255 15.7887C12.2827 15.7673 12.2141 15.7716 12.1584 15.8444C12.0298 15.8102 11.8798 15.8444 11.837 15.973C11.7598 15.9987 11.6912 16.1016 11.7041 16.1873C11.7298 16.1702 11.8198 16.1144 11.8541 16.1102C11.8627 16.1402 11.9141 16.1659 11.9441 16.1744C11.7727 16.3073 11.7641 16.4187 11.777 16.4744C11.8541 16.3673 11.9398 16.3459 11.9827 16.3502C12.0127 16.4187 12.0684 16.4444 12.1541 16.453L12.1627 16.6373L12.3084 16.4916C12.4884 16.5687 12.6812 16.5216 12.8141 16.4316C13.0627 16.2687 13.1655 15.9473 13.3498 15.9687C13.3927 15.9687 13.427 16.0073 13.4055 16.0544C13.4527 16.063 13.4955 16.0459 13.5298 16.0116C13.6027 15.9387 13.6455 15.7844 13.7827 15.6044C13.8684 15.493 14.0741 15.3687 14.1341 15.253C14.0398 15.313 13.9241 15.2959 13.9112 15.2444C14.0827 15.163 14.2327 15.073 14.297 14.8587C14.213 14.8996 14.1202 14.9188 14.027 14.9144C14.1041 14.7687 14.1298 14.6187 14.057 14.5202C13.8212 14.8287 13.5384 14.7773 13.4227 14.7044C13.3327 14.6487 13.2512 14.5673 13.2427 14.3702C13.2427 14.323 13.2512 14.2416 13.277 14.1644C13.3027 14.0873 13.3327 14.0273 13.3327 13.9587C13.5825 14.1004 13.864 14.1771 14.1512 14.1816C14.5198 14.1687 14.7598 13.9073 14.7512 13.5816C14.7349 13.4018 14.656 13.2335 14.5284 13.1059C14.3698 12.9302 14.1512 12.763 14.0055 12.5873C13.9327 12.493 13.877 12.3902 13.8598 12.2959C13.8255 12.1459 13.8512 11.9744 14.0312 11.8244C14.2284 11.9273 14.4127 11.9659 14.5884 11.953C14.7684 11.9444 14.9098 11.8502 15.047 11.7473C15.1112 11.7044 15.1755 11.653 15.3041 11.6659C15.2723 11.6355 15.2346 11.6122 15.1932 11.5975C15.1519 11.5827 15.1079 11.5768 15.0641 11.5802C15.347 11.2802 15.4627 10.8944 15.3041 10.6373C15.2784 10.7873 15.2184 10.8216 15.167 10.8516C15.0984 10.8944 15.0427 10.903 14.9441 10.9502C14.9955 10.8644 14.9912 10.7959 14.957 10.693C14.837 10.9759 14.6784 10.9073 14.4555 11.113C14.4848 11.0289 14.4802 10.9367 14.4427 10.8559C14.4355 10.8945 14.4204 10.9312 14.3982 10.9637C14.3761 10.9962 14.3475 11.0237 14.3141 11.0444C14.1127 11.173 13.8641 11.203 13.9112 11.6316C13.6541 11.8116 13.5598 12.0259 13.577 12.2402C13.5898 12.4202 13.6712 12.583 13.8041 12.7373C13.9412 12.9002 14.1341 13.0502 14.2755 13.1959C14.4212 13.3587 14.5627 13.6416 14.3998 13.8387C14.2927 13.9716 13.9841 14.0487 13.3412 13.693C13.307 13.3844 13.0412 13.0716 12.9855 12.793C12.9641 12.6859 12.9727 12.5959 12.9941 12.5016C13.0155 12.4159 13.0455 12.3302 13.0412 12.223C13.1527 12.3087 13.2812 12.3259 13.3755 12.2916C13.3335 12.2754 13.2976 12.2464 13.273 12.2087C13.2484 12.171 13.2363 12.1266 13.2384 12.0816C13.2384 11.9187 13.3455 11.7559 13.247 11.5716C13.3284 11.623 13.4184 11.6573 13.5212 11.6144C13.2898 11.4816 13.5041 11.3059 13.3927 11.0787C13.4741 11.113 13.5898 11.113 13.6755 11.0702C13.4012 11.0144 13.547 10.7059 13.307 10.5002C13.4098 10.5044 13.4912 10.4616 13.5427 10.3973C13.2941 10.4316 13.1698 10.1402 12.9598 9.9773C12.8562 9.90157 12.7376 9.84867 12.6121 9.82208C12.4865 9.79548 12.3567 9.7958 12.2312 9.82301C12.2312 9.78872 12.2998 9.73301 12.3812 9.69444C12.1241 9.60015 11.8584 9.66872 11.6312 9.84872C11.6375 9.80815 11.6347 9.76667 11.6228 9.72735C11.6109 9.68804 11.5904 9.65189 11.5627 9.62158C11.5327 9.78444 11.2584 9.87872 11.1598 10.0116C11.1138 10.0685 11.0895 10.1399 11.0912 10.213C10.847 10.3673 10.7784 10.3544 10.7055 10.543C10.5812 10.6287 10.4312 10.7273 10.3412 10.8173C10.3412 10.843 10.3584 10.8773 10.367 10.9073L10.4355 10.8473C10.4236 10.8733 10.4184 10.9019 10.4207 10.9304C10.423 10.9589 10.4325 10.9864 10.4484 11.0102C10.5041 11.0959 10.6198 11.1473 10.6884 11.1816C10.6455 11.0744 10.6584 11.0444 10.7098 11.0144C10.817 10.9544 11.0655 10.9716 11.087 11.0059C11.117 11.0487 11.0784 11.2373 10.9455 11.2887C10.847 11.3273 10.7827 11.2973 10.7098 11.233L10.7141 11.2287ZM11.1427 10.4873C11.087 10.5387 11.0912 10.6159 11.027 10.6459C10.9841 10.6716 10.9327 10.663 10.9112 10.6459C10.8812 10.6116 10.8684 10.5687 10.9112 10.5259C10.9541 10.4787 11.0612 10.483 11.147 10.483L11.1427 10.4873Z" fill="#FFE500"/>
<path d="M9.97306 9.00021C9.9902 9.00021 9.99878 9.01307 10.0031 9.03021L10.0673 9.19307C10.1316 9.3345 10.1316 9.34307 9.96878 9.3645C9.96457 9.36825 9.96124 9.37288 9.95902 9.37807C9.9568 9.38325 9.95574 9.38886 9.95592 9.3945C9.95592 9.41164 9.9602 9.42021 9.97306 9.42878H10.6973C10.7102 9.42021 10.7145 9.40735 10.7145 9.3945C10.7145 9.37735 10.7059 9.36878 10.6973 9.36021C10.5988 9.35164 10.5216 9.34307 10.4788 9.25307L10.4359 9.1845L10.0931 8.43878L9.98163 8.18164C9.97735 8.15592 9.95592 8.14307 9.92592 8.14307L9.86163 8.19021C9.81878 8.22021 9.77163 8.24164 9.70735 8.25878C9.70735 8.30164 9.67735 8.38735 9.60878 8.49878L9.38592 8.95735L9.23163 9.26164C9.18449 9.34735 9.10735 9.35592 9.00878 9.36021C9.00499 9.36499 9.00227 9.37051 9.00079 9.37643C8.99931 9.38234 8.99911 9.3885 9.0002 9.3945C9.0002 9.41164 9.00878 9.42021 9.01735 9.42878H9.5702C9.57878 9.42449 9.58735 9.41164 9.58735 9.3945C9.58735 9.38164 9.58306 9.36878 9.57449 9.36021C9.47163 9.34735 9.38163 9.36021 9.42449 9.25307L9.51878 9.03449C9.52306 9.01307 9.53592 9.00449 9.54449 9.00021H9.97306ZM9.59163 8.88449C9.58306 8.87592 9.58306 8.86307 9.6002 8.84164L9.6602 8.69592C9.70306 8.60164 9.73306 8.53307 9.76306 8.48592C9.78878 8.52878 9.81878 8.59735 9.85306 8.68735L9.91735 8.84164C9.93449 8.86307 9.93449 8.88021 9.92592 8.88449H9.59163ZM11.6059 8.6145C11.6873 8.4645 11.7516 8.35735 11.8031 8.30164C11.8459 8.24164 11.9231 8.23735 11.9916 8.2245C12.0002 8.21592 12.0045 8.20735 12.0045 8.19021C12.0045 8.17735 11.9959 8.14735 11.9873 8.14307H11.4816C11.4645 8.14735 11.4602 8.17307 11.4602 8.18592C11.4602 8.20307 11.4602 8.21592 11.4688 8.2245C11.4988 8.22878 11.6016 8.23307 11.6016 8.26735L11.5802 8.33592C11.5373 8.43878 11.4731 8.57164 11.3916 8.72592L11.3059 8.90164L11.2331 9.04307L11.1602 8.89735L10.9502 8.47735L10.8816 8.33592C10.8388 8.24592 10.8816 8.24164 10.9888 8.2245C10.9953 8.2143 10.9983 8.20227 10.9973 8.19021C10.9973 8.17735 10.9973 8.14735 10.9845 8.14307H10.3116C10.3031 8.14735 10.2988 8.17307 10.2945 8.18592C10.2902 8.20307 10.2945 8.21164 10.3031 8.22878C10.4745 8.25878 10.5088 8.29735 10.5731 8.44307L10.9545 9.20164L11.0531 9.41592C11.0659 9.42449 11.0873 9.42878 11.1173 9.42878C11.1516 9.42878 11.1773 9.42449 11.1988 9.41164L11.4345 8.94021L11.6059 8.6145ZM12.5831 8.31449C12.5831 8.28021 12.5831 8.25449 12.5959 8.24592L12.6645 8.23735H12.8831C12.9473 8.23735 12.9945 8.24164 13.0331 8.2545C13.0759 8.26307 13.1016 8.28021 13.1188 8.29735C13.1445 8.32307 13.1702 8.37449 13.1916 8.45164C13.2088 8.46021 13.2259 8.46021 13.2473 8.46021C13.2645 8.46021 13.2773 8.45592 13.2859 8.44307L13.2816 8.14307H12.0516C12.0388 8.14735 12.0345 8.16021 12.0345 8.17307C12.0345 8.19021 12.0345 8.20307 12.0473 8.21164L12.0988 8.21592C12.1545 8.22021 12.1845 8.23307 12.2016 8.25878C12.2145 8.2845 12.2145 8.34021 12.2145 8.43021V9.14592C12.2145 9.30878 12.1931 9.33878 12.0131 9.36021C12.0045 9.36878 12.0002 9.37735 12.0002 9.3945C12.0002 9.41164 12.0045 9.42021 12.0131 9.42878H12.8016C12.8102 9.42021 12.8145 9.40735 12.8145 9.3945C12.8145 9.37735 12.8102 9.36878 12.8016 9.36021C12.6216 9.34307 12.5831 9.30878 12.5873 9.14592V8.88878C12.5873 8.85878 12.5873 8.84164 12.6002 8.83307C12.6045 8.82878 12.6216 8.8245 12.6559 8.8245H12.8702C12.9141 8.82213 12.958 8.82944 12.9988 8.84592C13.0245 8.85878 13.0373 8.88878 13.0459 8.93164L13.0588 8.97878C13.0716 8.98735 13.0888 8.99164 13.1059 8.99164C13.1273 8.99164 13.1445 8.98735 13.1488 8.97878V8.57164C13.1445 8.56307 13.1273 8.55449 13.1059 8.55449C13.0902 8.5557 13.0753 8.56168 13.0631 8.57164L13.0459 8.6145C13.0373 8.65735 13.0202 8.69164 13.0031 8.70449C12.9731 8.71735 12.9302 8.72592 12.8659 8.72592H12.6516C12.6216 8.72592 12.6045 8.72164 12.5959 8.71307C12.5873 8.70449 12.5831 8.69164 12.5831 8.66592V8.31878V8.31449ZM14.3573 8.14307C13.8945 8.14307 13.5002 8.33164 13.5002 8.80307C13.5002 9.2745 13.9031 9.42878 14.3531 9.42878C14.4602 9.42878 14.5588 9.42021 14.6531 9.40307L14.8973 9.36021C14.9402 9.30878 14.9745 9.21449 15.0002 9.06878C14.9916 9.05592 14.9745 9.04735 14.9531 9.04735C14.9273 9.04735 14.9102 9.04735 14.8973 9.05592C14.8615 9.11887 14.8135 9.17403 14.7561 9.21819C14.6987 9.26234 14.6331 9.2946 14.5631 9.31307C14.5031 9.33449 14.4345 9.34307 14.3488 9.34307C14.1602 9.36021 14.0059 9.11592 14.0016 8.80307C14.0016 8.49878 14.1045 8.22878 14.3359 8.22878C14.6016 8.22878 14.7688 8.31449 14.8416 8.49449C14.8588 8.50307 14.8759 8.50307 14.8973 8.50307C14.9231 8.49878 14.9402 8.49021 14.9402 8.48164C14.9219 8.38553 14.9119 8.28803 14.9102 8.19021C14.8673 8.19021 14.8031 8.17735 14.7088 8.16449C14.6102 8.15164 14.4945 8.14307 14.3573 8.14307Z" fill="#7B003A"/>
</g>
<defs>
<clipPath id="clip0_31_6473">
<rect width="24" height="24" fill="white"/>
</clipPath>
</defs>
</svg>

<svg xmlns="http://www.w3.org/2000/svg" width="24" height="24" fill="none" viewBox="0 0 24 24"><g clip-path="url(#a)"><path fill="#7A123C" d="M0 0h24v24H0z"/><path fill="#A2C3E6" fill-rule="evenodd" d="M12 18.857c3.771 0 6.857-3.085 6.857-6.857 0-3.771-3.085-6.857-6.857-6.857-3.771 0-6.857 3.086-6.857 6.857S8.229 18.857 12 18.857m0 .429a7.285 7.285 0 1 0 0-14.57 7.285 7.285 0 0 0 0 14.57" clip-rule="evenodd"/><path fill="#fff" d="M15.857 7.286H8.143v7.778c0 .609.394 1.084 1.179 1.436q.39.179 1.045.364l.973.279.137.06c.2.078.376.205.515.368.175-.191.396-.334.642-.415q.175-.066.96-.292a8.4 8.4 0 0 0 1.06-.36q1.202-.52 1.203-1.44z"/><path fill="#A3C4E9" d="M11.73 16.929q.128.084.261.214l.197-.167q.136-.104.369-.18c.107-.043.394-.12.857-.244q.607-.169.943-.305 1.072-.445 1.071-1.217V7.714H8.571v7.316c0 .514.352.917 1.046 1.213.236.099.544.201.934.304l.866.236z"/><path fill="#fff" d="m10.286 9.917-.442-.068-.201-.42-.197.42L9 9.917l.321.33-.077.467.399-.222.398.222-.077-.471z"/><path fill="#FFE500" d="M10.714 11.229c-.004.068.004.115.043.154-.056.034-.043.09-.021.141.05.084.127.147.218.18.021-.03-.03-.102-.013-.154.064.043.129.077.172.073q-.043-.078-.022-.099c.116-.085.253-.192.335-.214.064-.021.132.022.145.094.013.086-.025.155-.085.215-.112.103-.262.154-.378.27-.184.18-.223.377-.445.385a.6.6 0 0 0 .261-.252c-.437.06-.707-.15-.977-.275-.12-.051-.24-.064-.304-.077a.52.52 0 0 1-.189-.308c-.03-.15.013-.283-.141-.3-.086-.108-.202-.18-.369-.086.086.013.154.034.197.15-.013.017-.043.043-.043.068-.055.005-.072.009-.111.043-.146-.055-.287-.034-.356.095.103-.022.18-.022.253.042.009.043.013.069.039.103a.2.2 0 0 0-.099.142c-.12.025-.193.085-.197.188.086-.051.171-.06.214-.047.03.026.052.073.112.086.064.017.188-.004.261.013.03.043.039.068.034.094-.008.111-.214.039-.192.206-.073.017-.116-.005-.172-.043.039.163.146.236.292.158.12.026.197-.085.304-.141.107-.051.261.017.347.069a.72.72 0 0 1 .351.441.27.27 0 0 0 .086-.171l.352.287-.75.514c-.052.034-.108.069-.163.047-.043-.013-.073-.06-.112-.094-.06-.047-.137-.082-.223-.043-.132 0-.257.026-.282.206.042-.035.085-.069.167-.043q-.001.064.043.116c-.043.021-.069.055-.069.081-.129.004-.214.064-.227.197.068-.064.128-.09.214-.06.022.129.09.15.172.137-.022.06-.03.099 0 .146-.043.086.004.193.064.231-.004-.051 0-.115.038-.141.069.013.12-.013.193-.094a.13.13 0 0 0 .137.103.24.24 0 0 0 .095.167.4.4 0 0 1-.009-.185c.129-.085.103-.184.124-.295.022-.125.095-.18.206-.245.214-.128.476-.222.883-.252.128.137.257.282.416.407-.245.175-.412.103-.613.124a.5.5 0 0 0-.274.107c-.056.052-.086.116-.15.146-.048.021-.112.026-.189-.03-.004.158.069.214.253.201-.065.069-.133.095-.274.052.06.124.154.171.304.158.038.215.351.335.296.506-.078.231-.656.296-.866.176-.15-.086-.214-.223-.386-.18-.098-.077-.274-.103-.347.085.129-.064.184-.03.154.043-.227 0-.313.103-.278.24.043-.073.085-.085.145-.081a.34.34 0 0 0-.03.171c-.111.056-.115.167-.064.257.03-.072.043-.141.116-.145a.37.37 0 0 0 .171.107.5.5 0 0 0 .022.313.4.4 0 0 1 .085-.167c.116.072.24.072.36.042.245-.055.399-.227.588-.227.107 0 .158.073.085.159a.74.74 0 0 0 .309-.077c.116-.06.188-.133.3-.159.188-.043.45.15.578-.06-.15.022-.235-.038-.257-.098.184.025.3.021.403-.116a.343.343 0 0 1-.407-.283c-.017-.107.021-.309.274-.373.086-.15.129-.227.215-.351l.03-.12a.3.3 0 0 1 .012.171c-.03.086-.098.18-.141.283a.7.7 0 0 0-.043.244.4.4 0 0 0 .103.232c.107.111.257.197.15.415.116-.008.18-.055.291-.171.086.056.155.137.12.24.146-.039.236-.137.288-.283.205.009.317.043.342.112.03.115-.3.548-.711.565-.069-.017-.12-.077-.171-.098-.043-.022-.112-.017-.168.055-.128-.034-.278 0-.321.129-.077.026-.146.129-.133.214a.6.6 0 0 1 .15-.077c.009.03.06.056.09.064-.171.133-.18.245-.167.3.077-.107.163-.128.206-.124.03.069.085.094.171.103l.009.184.145-.145c.18.077.373.03.506-.06.249-.163.351-.485.536-.463.043 0 .077.038.056.085a.14.14 0 0 0 .124-.042c.073-.073.116-.228.253-.408.085-.111.291-.235.351-.351-.094.06-.21.043-.223-.009.172-.081.322-.171.386-.385a.56.56 0 0 1-.27.055c.077-.145.103-.295.03-.394-.236.309-.519.257-.634.184-.09-.055-.172-.137-.18-.334a.7.7 0 0 1 .034-.206c.026-.077.056-.137.056-.205.25.141.531.218.818.223.369-.013.609-.275.6-.6a.77.77 0 0 0-.223-.476c-.158-.176-.377-.343-.523-.519a.7.7 0 0 1-.145-.291c-.034-.15-.009-.322.171-.472.197.103.382.142.557.129.18-.009.322-.103.459-.206.064-.043.128-.094.257-.081a.31.31 0 0 0-.24-.086c.283-.3.399-.686.24-.943-.026.15-.086.185-.137.215-.069.042-.124.051-.223.098.051-.086.047-.154.013-.257-.12.283-.279.214-.502.42a.34.34 0 0 0-.012-.257.28.28 0 0 1-.129.188c-.201.129-.45.159-.403.588-.257.18-.351.394-.334.608.013.18.094.343.227.497.137.163.33.313.471.459.146.163.288.446.125.643-.107.133-.416.21-1.059-.146-.034-.309-.3-.621-.355-.9a.7.7 0 0 1 .008-.291c.021-.086.052-.172.047-.279a.36.36 0 0 0 .335.069.215.215 0 0 1-.138-.21c0-.163.107-.326.009-.51.081.051.171.085.274.042-.231-.132-.017-.308-.128-.535a.36.36 0 0 0 .282-.009c-.274-.056-.128-.364-.368-.57a.28.28 0 0 0 .236-.103c-.249.035-.373-.257-.583-.42a.9.9 0 0 0-.729-.154c0-.034.069-.09.15-.129-.257-.094-.523-.025-.75.155a.27.27 0 0 0-.068-.227c-.03.162-.305.257-.403.39a.3.3 0 0 0-.069.201c-.244.154-.313.141-.385.33-.125.086-.275.184-.365.274 0 .026.017.06.026.09l.068-.06a.17.17 0 0 0 .013.163c.056.086.172.137.24.172-.043-.108-.03-.138.022-.168.107-.06.355-.042.377-.008.03.043-.009.231-.142.283-.098.038-.162.008-.235-.056zm.429-.742c-.056.052-.052.129-.116.159-.043.026-.094.017-.116 0-.03-.034-.043-.077 0-.12.043-.047.15-.043.236-.043z"/><path fill="#7B003A" d="M9.973 9c.017 0 .026.013.03.03l.064.163c.065.142.065.15-.098.172a.04.04 0 0 0-.013.03c0 .017.004.025.017.034h.724a.04.04 0 0 0 .018-.034c0-.018-.01-.026-.018-.035-.098-.008-.175-.017-.218-.107l-.043-.069-.343-.745-.111-.257q-.01-.039-.056-.039l-.064.047a.5.5 0 0 1-.155.069c0 .043-.03.128-.098.24l-.223.458-.154.305c-.048.085-.125.094-.223.098A.04.04 0 0 0 9 9.395c0 .017.009.025.017.034h.553q.015-.008.017-.034a.05.05 0 0 0-.013-.035c-.102-.013-.192 0-.15-.107l.095-.219A.05.05 0 0 1 9.544 9zm-.381-.116q-.016-.01.008-.042l.06-.146c.043-.094.073-.163.103-.21q.039.065.09.201l.064.155c.017.021.017.038.009.042zm2.014-.27c.081-.15.146-.257.197-.312.043-.06.12-.065.189-.077.008-.01.012-.018.012-.035 0-.013-.008-.043-.017-.047h-.505c-.018.004-.022.03-.022.043 0 .017 0 .03.009.039.03.004.133.008.133.042l-.022.069a5 5 0 0 1-.188.39l-.086.176-.073.141-.073-.146-.21-.42-.068-.141c-.043-.09 0-.094.107-.111a.06.06 0 0 0 .008-.035c0-.013 0-.043-.012-.047h-.673c-.009.004-.013.03-.018.043-.004.017 0 .026.01.043.17.03.205.068.27.214l.38.759.1.214q.018.012.063.013.05 0 .082-.017l.236-.472zm.977-.3c0-.034 0-.06.013-.068l.069-.009h.218a.5.5 0 0 1 .15.018.16.16 0 0 1 .086.042.4.4 0 0 1 .073.155.1.1 0 0 0 .055.008q.026.001.039-.017l-.004-.3h-1.23c-.013.004-.018.017-.018.03 0 .017 0 .03.013.039l.052.004c.056.004.085.017.103.043.012.025.012.081.012.171v.716c0 .163-.02.193-.2.214-.01.009-.014.017-.014.035 0 .017.005.025.013.034h.789a.05.05 0 0 0 .013-.034c0-.018-.005-.026-.013-.035-.18-.017-.219-.051-.215-.214v-.257c0-.03 0-.047.013-.056q.006-.007.056-.008h.214a.3.3 0 0 1 .129.02q.035.022.047.087l.013.047q.02.012.047.013c.021 0 .039-.005.043-.013v-.407c-.004-.009-.022-.018-.043-.018a.1.1 0 0 0-.043.018l-.017.043c-.009.042-.026.077-.043.09a.4.4 0 0 1-.137.02h-.214q-.044 0-.056-.012c-.009-.009-.013-.021-.013-.047v-.352m1.774-.17c-.462 0-.857.188-.857.66 0 .47.403.625.853.625q.16 0 .3-.026l.244-.043q.065-.075.103-.291-.013-.02-.047-.022c-.026 0-.043 0-.056.009a.54.54 0 0 1-.334.257.6.6 0 0 1-.214.03c-.189.017-.343-.227-.347-.54 0-.304.102-.574.334-.574.266 0 .433.085.506.265.017.01.034.01.055.01q.041-.009.043-.022a2 2 0 0 1-.03-.292c-.043 0-.107-.013-.201-.026a3 3 0 0 0-.352-.02"/></g><defs><clipPath id="a"><path fill="#fff" d="M0 0h24v24H0z"/></clipPath></defs></svg>
